subcellular/src/assets/icons/svg/mail.svg

<svg xmlns="http://www.w3.org/2000/svg" width="32" height="32" viewBox="0 0 32 32"><path fill="#FFF" d="M3.003 24.814h25.994V7.186H3.003v17.628z"/><path fill="#C8C8C8" d="M2 6.147v19.705h28V6.147H2zm1.038 1.038h25.927v.983L16.073 18.205 3.038 8.151v-.966zm25.925 17.336l-8.939-7.992 8.941-6.96-.002 14.952zm-.45.293H3.488l8.961-8.01 3.628 2.797 3.528-2.75 8.908 7.963zm-25.475-.292V9.549l8.995 6.934-8.995 8.039z"/></svg>

<?xml version="1.0" encoding="utf-8"?>
<!-- Generator: Adobe Illustrator 14.0.0, SVG Export Plug-In . SVG Version: 6.00 Build 43363)  -->
<!DOCTYPE svg PUBLIC "-//W3C//DTD SVG 1.1//EN" "http://www.w3.org/Graphics/SVG/1.1/DTD/svg11.dtd">
<svg version="1.1" id="Layer_1" xmlns="http://www.w3.org/2000/svg" xmlns:xlink="http://www.w3.org/1999/xlink" x="0px" y="0px"
	 width="32px" height="32px" viewBox="0 0 32 32" enable-background="new 0 0 32 32" xml:space="preserve">
<path fill="#FFFFFF" d="M3.003,24.814h25.994V7.186H3.003V24.814z"/>
<path fill="#C8C8C8" d="M2,6.147v19.705h28V6.147H2z M3.038,7.185h25.927v0.983L16.073,18.205L3.038,8.151V7.185z M28.963,24.521
	l-8.939-7.992l8.941-6.96L28.963,24.521z M28.513,24.814H3.488l8.961-8.01l3.628,2.797l3.528-2.75L28.513,24.814L28.513,24.814z
	 M3.038,24.522V9.549l8.995,6.934L3.038,24.522z"/>
</svg>
